packages/icons/svg/Product_Basket_Save_32px.svg

<svg xmlns="http://www.w3.org/2000/svg" viewBox="0 0 32 32"><path d="M27.2 9.75a2 2 0 00-1.64-.86H17.5V3.5a.5.5 0 00-1 0v5.39H8.74l-.66-2.42A2 2 0 006.15 5H4a1 1 0 000 2h2.15l3.49 12.78a2 2 0 001.93 1.48h10.85A2 2 0 0024.29 20l3.14-8.37a2 2 0 00-.23-1.88zm-4.78 9.51H11.57l-2.29-8.37h7.22V15l-1.65-1.6a.49.49 0 00-.7.7l2.5 2.5a.48.48 0 00.7 0l2.5-2.5a.49.49 0 10-.7-.7L17.5 15v-4.11h8.06zM12.75 23.18a3.43 3.43 0 00-2 .67 1 1 0 00-.27.27A3 3 0 0012.75 29a3.44 3.44 0 002-.66 1.38 1.38 0 00.27-.27 3 3 0 00-2.27-4.89zm.69 3.6a1.3 1.3 0 01-.69.22.9.9 0 01-.81-.49 1.11 1.11 0 01.11-1.11 1.36 1.36 0 01.7-.22.9.9 0 01.8.49 1.11 1.11 0 01-.11 1.11zM21.17 23.18a3.43 3.43 0 00-2 .67 1.15 1.15 0 00-.27.27A3 3 0 0021.17 29a3.44 3.44 0 002-.66 1.15 1.15 0 00.27-.27 3 3 0 00-2.27-4.89zm.69 3.6a1.3 1.3 0 01-.69.22.91.91 0 01-.81-.49 1.09 1.09 0 01.12-1.11 1.3 1.3 0 01.69-.22.91.91 0 01.81.49 1.13 1.13 0 01-.12 1.11z"/></svg>

<svg xmlns="http://www.w3.org/2000/svg" viewBox="0 0 32 32"><defs></defs><g id="Icon"><path  d="M27.2,9.75a2,2,0,0,0-1.64-.86H17.5V3.5a.5.5,0,0,0-1,0V8.89H8.74L8.08,6.47A2,2,0,0,0,6.15,5H4A1,1,0,0,0,4,7H6.15L9.64,19.78a2,2,0,0,0,1.93,1.48H22.42A2,2,0,0,0,24.29,20l3.14-8.37A2,2,0,0,0,27.2,9.75Zm-4.78,9.51H11.57L9.28,10.89H16.5V15L14.85,13.4a.49.49,0,0,0-.7.7l2.5,2.5a.48.48,0,0,0,.7,0l2.5-2.5a.49.49,0,1,0-.7-.7L17.5,15V10.89h8.06Z"/><path  d="M12.75,23.18a3.43,3.43,0,0,0-2,.67,1,1,0,0,0-.27.27A3,3,0,0,0,12.75,29a3.44,3.44,0,0,0,2-.66,1.38,1.38,0,0,0,.27-.27A3,3,0,0,0,12.75,23.18Zm.69,3.6a1.3,1.3,0,0,1-.69.22.9.9,0,0,1-.81-.49,1.11,1.11,0,0,1,.11-1.11,1.36,1.36,0,0,1,.7-.22.9.9,0,0,1,.8.49A1.11,1.11,0,0,1,13.44,26.78Z"/><path  d="M21.17,23.18a3.43,3.43,0,0,0-2,.67,1.15,1.15,0,0,0-.27.27A3,3,0,0,0,21.17,29a3.44,3.44,0,0,0,2-.66,1.15,1.15,0,0,0,.27-.27A3,3,0,0,0,21.17,23.18Zm.69,3.6a1.3,1.3,0,0,1-.69.22.91.91,0,0,1-.81-.49,1.09,1.09,0,0,1,.12-1.11,1.3,1.3,0,0,1,.69-.22.91.91,0,0,1,.81.49A1.13,1.13,0,0,1,21.86,26.78Z"/></g></svg>
